assets/icons/icon.svg

<?xml version="1.0" encoding="UTF-8" standalone="no"?>
<!-- Created with Inkscape (http://www.inkscape.org/) -->

<svg
   width="512"
   height="512"
   viewBox="0 0 512 512"
   version="1.1"
   id="svg5"
   inkscape:version="1.1 (c68e22c387, 2021-05-23)"
   sodipodi:docname="icon.svg"
   xmlns:inkscape="http://www.inkscape.org/namespaces/inkscape"
   xmlns:sodipodi="http://sodipodi.sourceforge.net/DTD/sodipodi-0.dtd"
   xmlns:xlink="http://www.w3.org/1999/xlink"
   xmlns="http://www.w3.org/2000/svg"
   xmlns:svg="http://www.w3.org/2000/svg">
  <sodipodi:namedview
     id="namedview7"
     pagecolor="#ffffff"
     bordercolor="#666666"
     borderopacity="1.0"
     inkscape:pageshadow="2"
     inkscape:pageopacity="0.0"
     inkscape:pagecheckerboard="0"
     inkscape:document-units="px"
     showgrid="false"
     units="px"
     inkscape:zoom="0.26582969"
     inkscape:cx="-361.13347"
     inkscape:cy="426.9651"
     inkscape:window-width="3840"
     inkscape:window-height="1017"
     inkscape:window-x="-8"
     inkscape:window-y="-8"
     inkscape:window-maximized="1"
     inkscape:current-layer="layer1" />
  <defs
     id="defs2">
    <linearGradient
       inkscape:collect="always"
       id="linearGradient17527">
      <stop
         style="stop-color:#0c8457;stop-opacity:1"
         offset="0"
         id="stop17523" />
      <stop
         style="stop-color:#10bb79;stop-opacity:1"
         offset="1"
         id="stop17525" />
    </linearGradient>
    <linearGradient
       inkscape:collect="always"
       xlink:href="#linearGradient17527"
       id="linearGradient17529"
       x1="393.82462"
       y1="475.44571"
       x2="831.90527"
       y2="32.350616"
       gradientUnits="userSpaceOnUse"
       gradientTransform="matrix(0,-1.1687346,1.1555082,0,-37.381404,460.27647)" />
  </defs>
  <g
     inkscape:label="Layer 1"
     inkscape:groupmode="layer"
     id="layer1">
    <rect
       style="fill:url(#linearGradient17529);fill-opacity:1;stroke:none;stroke-width:11.6211;stroke-miterlimit:4;stroke-dasharray:none"
       id="rect17411"
       width="512"
       height="512"
       x="0"
       y="-512"
       ry="0"
       transform="rotate(90)" />
    <path
       id="path145"
       style="color:#000000;fill:#ffffff;stroke-width:1.16873;-inkscape-stroke:none"
       d="m 168.20312,250.15625 c 0.61308,-28.04012 5.50416,-51.77465 12.7461,-71.63672 18.01512,5.56875 37.70116,9.10397 58.40625,10.29102 v -11.7168 c -19.17011,-1.16198 -37.37098,-4.43622 -53.99024,-9.48633 6.5011,-14.82233 14.2655,-27.22804 22.33399,-37.34961 10.34974,-12.98336 21.17601,-22.28042 30.24219,-28.25 4.57646,-3.013326 8.88328,-5.094101 12.21484,-6.425779 v 30.998049 c 3.64403,-2.37968 7.95156,-3.78881 12.53711,-3.80274 V 95.582031 c 3.33156,1.33168 7.63838,3.41244 12.21484,6.425779 7.19223,4.73569 15.48835,11.66264 23.7793,20.76563 h 15.43359 c -8.72134,-10.90426 -17.76513,-19.41093 -26.14843,-25.789065 22.23416,4.375955 42.77934,13.348365 60.73437,25.789065 H 368.0332 C 337.8171,97.441769 298.89671,82.162109 256.42383,82.162109 c -95.98405,0 -173.919924,77.935871 -173.919924,173.919921 0,95.98405 77.935874,173.91992 173.919924,173.91992 95.98405,0 173.91992,-77.93587 173.91992,-173.91992 0,-3.47264 -0.13084,-2.50347 -0.33203,-5.92603 M 224.875,96.984375 c -8.43726,6.419175 -17.54317,14.982615 -26.31641,25.988285 -8.8502,11.10223 -17.29328,24.7163 -24.28515,40.91796 -13.00287,-4.76849 -24.8844,-10.62028 -35.26758,-17.375 -0.46267,-0.30099 -0.88514,-0.62155 -1.3418,-0.92578 22.78972,-24.4754 53.06605,-41.88535 87.21094,-48.605465 z m -94.91602,57.529295 c 0.88663,0.60286 1.76853,1.20989 2.67383,1.79883 11.10203,7.22237 23.64978,13.41852 37.28516,18.45117 -7.65887,21.09463 -12.78376,46.12823 -13.40235,75.39258 H 94.339844 c 1.298264,-36.17797 14.427846,-69.29263 35.619136,-95.64258 z M 94.335938,261.84375 h 62.177732 c 0.60933,29.65294 5.85245,54.952 13.66406,76.22852 -12.77269,4.87967 -24.55862,10.78834 -35.05273,17.61523 -1.47945,0.96246 -2.91647,1.95367 -4.3457,2.95312 C 109.0805,332.09175 95.616401,298.5442 94.335938,261.84375 Z m 73.863282,0 h 81.95703 v 60.96289 c -24.64656,0.64794 -47.97666,4.65508 -68.98633,11.39844 -7.37199,-20.01694 -12.36745,-43.97881 -12.9707,-72.36133 z m 94.49414,0 h 81.95703 c -0.60325,28.38252 -5.59871,52.34439 -12.9707,72.36133 -21.00967,-6.74336 -44.33977,-10.7505 -68.98633,-11.39844 z m 93.64258,0 h 62.17773 c -1.28046,36.70045 -14.74456,70.248 -36.44336,96.79687 -1.42923,-0.99945 -2.86625,-1.99066 -4.3457,-2.95312 -10.49411,-6.82689 -22.28005,-12.73556 -35.05273,-17.61523 7.81161,-21.27652 13.05473,-46.57558 13.66406,-76.22852 z m -106.17969,72.65234 v 82.08594 c -3.33156,-1.33169 -7.63838,-3.41245 -12.21484,-6.42578 -9.06618,-5.96956 -19.89244,-15.26665 -30.24219,-28.25 -7.97399,-10.00305 -15.65455,-22.23436 -22.10938,-36.82617 19.5923,-6.19251 41.44771,-9.94235 64.56641,-10.58399 z m 12.53711,0 c 23.1187,0.64164 44.97215,4.39148 64.56445,10.58399 -6.45483,14.59181 -14.13343,26.82312 -22.10742,36.82617 -10.34975,12.98335 -21.17601,22.28044 -30.24219,28.25 -4.57646,3.01333 -8.88328,5.09409 -12.21484,6.42578 z m -88.13281,14.43555 c 6.93582,15.90987 15.26858,29.30902 23.99804,40.25977 8.77375,11.00632 17.88069,19.56898 26.31836,25.98828 -33.7156,-6.6353 -63.64916,-23.70199 -86.33789,-47.69336 0.97917,-0.67093 1.95124,-1.34637 2.95899,-2.00195 9.79365,-6.37122 20.92169,-11.9373 33.0625,-16.55274 z m 163.72851,0 c 12.14081,4.61544 23.26885,10.18151 33.0625,16.55274 1.00775,0.65557 1.97786,1.33102 2.95703,2.00195 -22.68873,23.99137 -52.62229,41.05806 -86.33789,47.69336 8.43767,-6.4193 17.54657,-14.98196 26.32032,-25.98828 8.72946,-10.95075 17.06222,-24.3499 23.99804,-40.25977 z"
       sodipodi:nodetypes="cccccssccccscccccssssccscscccscccccccscccccccccccccccsccccssccccsscccsccsccsccsc" />
    <path
       id="path1021"
       style="color:#000000;fill:#ffffff;stroke-width:1.16873;-inkscape-stroke:none"
       d="m 262.76157,136.441 c -5.39523,0 -9.73793,4.34271 -9.73793,9.73793 v 80.42121 c 0,5.39522 4.3427,9.73792 9.73793,9.73792 h 153.96924 c 5.39522,0 9.73793,-4.3427 9.73793,-9.73792 v -80.42121 c 0,-5.39522 -4.34271,-9.73793 -9.73793,-9.73793 z m 114.55644,15.14104 c 5.85012,0 10.6143,1.3989 14.29644,4.19557 3.71654,2.79669 6.4354,6.69646 8.15604,11.70104 1.75502,4.97513 2.6342,10.73081 2.6342,17.26621 0,4.85738 -0.49948,9.31855 -1.49744,13.38109 -0.96355,4.06254 -2.4597,7.57953 -4.49003,10.55284 -1.99595,2.97331 -4.595,5.27001 -7.79537,6.88913 -3.16593,1.61913 -6.93345,2.42878 -11.30384,2.42878 -4.43921,0 -8.26099,-0.82586 -11.46135,-2.47443 -3.20036,-1.64857 -5.81524,-3.9592 -7.84558,-6.93251 -2.03035,-3.00274 -3.5265,-6.53366 -4.49004,-10.5962 -0.96356,-4.06254 -1.44494,-8.50977 -1.44494,-13.33772 0,-7.3008 0.94469,-13.39289 2.83738,-18.27973 1.89268,-4.91626 4.7155,-8.61185 8.46647,-11.0847 3.75096,-2.47286 8.39766,-3.70937 13.93806,-3.70937 z m -99.33323,0.97243 h 15.16843 l 15.36931,48.92702 h 0.29674 l 15.3693,-48.92702 h 15.21866 v 64.55883 h -10.50948 v -37.93134 c 0,-1.05979 0.0172,-2.23829 0.0503,-3.53359 0.0329,-1.32476 0.0822,-2.79558 0.14837,-4.41471 0.0991,-1.61913 0.19759,-3.40081 0.29675,-5.34376 h -0.34697 l -16.01302,51.2234 h -9.07139 l -15.96279,-51.26677 h -0.39719 c 0.16525,1.97239 0.28086,3.79586 0.34697,5.47387 0.0991,1.64856 0.16554,3.13562 0.19859,4.46037 0.066,1.29529 0.0982,2.4135 0.0982,3.35554 V 217.1133 H 277.9849 Z m 99.33323,7.59449 c -2.99388,0 -5.48899,0.92795 -7.48492,2.78259 -1.99593,1.85463 -3.49436,4.60605 -4.49232,8.25646 -0.99797,3.62096 -1.49516,8.14012 -1.49516,13.55685 0,5.38727 0.49719,9.90645 1.49516,13.55686 1.03238,3.6504 2.54661,6.40182 4.54254,8.25646 1.99592,1.85463 4.45713,2.78259 7.3822,2.78259 2.95947,0 5.42068,-0.89781 7.38219,-2.69357 1.96151,-1.8252 3.43957,-4.54876 4.43754,-8.16972 0.99796,-3.6504 1.49744,-8.22759 1.49744,-13.73262 0,-8.2134 -1.11873,-14.36579 -3.35555,-18.45777 -2.20238,-4.09199 -5.50431,-6.13813 -9.90912,-6.13813 z"
       sodipodi:nodetypes="ssssssssssccscccsscsscssccccccccsccccccccccscccsscscssccscs" />
  </g>
</svg>

<?xml version="1.0" encoding="UTF-8" standalone="no"?>
<!-- Created with Inkscape (http://www.inkscape.org/) -->

<svg
   width="512"
   height="512"
   viewBox="0 0 512 512"
   version="1.1"
   id="svg5"
   inkscape:version="1.1 (c68e22c387, 2021-05-23)"
   sodipodi:docname="icon.svg"
   inkscape:export-filename="C:\projects\webmontag-webbluetooth\assets\icons\icon_512.png"
   inkscape:export-xdpi="96"
   inkscape:export-ydpi="96"
   xmlns:inkscape="http://www.inkscape.org/namespaces/inkscape"
   xmlns:sodipodi="http://sodipodi.sourceforge.net/DTD/sodipodi-0.dtd"
   xmlns:xlink="http://www.w3.org/1999/xlink"
   xmlns="http://www.w3.org/2000/svg"
   xmlns:svg="http://www.w3.org/2000/svg">
  <sodipodi:namedview
     id="namedview7"
     pagecolor="#ffffff"
     bordercolor="#666666"
     borderopacity="1.0"
     inkscape:pageshadow="2"
     inkscape:pageopacity="0.0"
     inkscape:pagecheckerboard="0"
     inkscape:document-units="px"
     showgrid="false"
     units="px"
     inkscape:zoom="1.4142136"
     inkscape:cx="288.85312"
     inkscape:cy="343.65389"
     inkscape:window-width="2920"
     inkscape:window-height="1040"
     inkscape:window-x="26"
     inkscape:window-y="0"
     inkscape:window-maximized="0"
     inkscape:current-layer="layer1"
     inkscape:snap-bbox="true"
     inkscape:bbox-paths="true"
     inkscape:bbox-nodes="true"
     inkscape:snap-bbox-midpoints="true"
     inkscape:snap-bbox-edge-midpoints="true"
     inkscape:object-paths="true"
     inkscape:snap-intersection-paths="true"
     inkscape:snap-smooth-nodes="true"
     inkscape:snap-global="false"
     showguides="false"
     inkscape:guide-bbox="true">
    <sodipodi:guide
       position="426.26488,329.79005"
       orientation="1,0"
       id="guide7469" />
    <sodipodi:guide
       position="430.25488,254.31257"
       orientation="1,0"
       id="guide7471" />
    <sodipodi:guide
       position="278.63492,376.67254"
       orientation="0,-1"
       id="guide7473" />
    <sodipodi:guide
       position="276.63992,275.92507"
       orientation="0,-1"
       id="guide7475" />
    <sodipodi:guide
       position="234.41243,250.65507"
       orientation="0,-1"
       id="guide7477" />
    <sodipodi:guide
       position="182.87495,235.69258"
       orientation="0,-1"
       id="guide7479" />
    <sodipodi:guide
       position="253.03243,322.47505"
       orientation="1,0"
       id="guide7481" />
    <sodipodi:guide
       position="81.794977,228.71008"
       orientation="1,0"
       id="guide7483" />
    <sodipodi:guide
       position="86.117476,213.08258"
       orientation="1,0"
       id="guide7485" />
  </sodipodi:namedview>
  <defs
     id="defs2">
    <linearGradient
       inkscape:collect="always"
       id="linearGradient17527">
      <stop
         style="stop-color:#0c8457;stop-opacity:1"
         offset="0"
         id="stop17523" />
      <stop
         style="stop-color:#10bb79;stop-opacity:1"
         offset="1"
         id="stop17525" />
    </linearGradient>
    <linearGradient
       inkscape:collect="always"
       xlink:href="#linearGradient17527"
       id="linearGradient17529"
       x1="393.82462"
       y1="475.44571"
       x2="831.90527"
       y2="32.350616"
       gradientUnits="userSpaceOnUse"
       gradientTransform="matrix(0,-1.1687346,1.1555082,0,-37.381404,460.27647)" />
  </defs>
  <g
     inkscape:label="Layer 1"
     inkscape:groupmode="layer"
     id="layer1">
    <rect
       style="fill:url(#linearGradient17529);fill-opacity:1;stroke:none;stroke-width:11.6211;stroke-miterlimit:4;stroke-dasharray:none"
       id="rect17411"
       width="512"
       height="512"
       x="0"
       y="-512"
       ry="0"
       transform="rotate(90)"
       inkscape:export-filename="C:\projects\webmontag-webbluetooth\assets\icons\mask_192.png"
       inkscape:export-xdpi="4.5"
       inkscape:export-ydpi="4.5" />
    <path
       id="path145"
       d="M 256.42383 82.162109 C 160.43978 82.162109 82.503906 160.09798 82.503906 256.08203 C 82.503906 283.10679 88.754715 308.6576 99.777344 331.48242 C 98.83344 335.82421 98.32219 340.32853 98.322266 344.95312 C 98.322866 379.8191 126.58912 408.08261 161.45508 408.08203 C 164.66639 408.08198 167.81997 407.83963 170.90234 407.37695 C 196.17633 421.713 225.31765 430.00195 256.42383 430.00195 C 352.40788 430.00195 430.34375 352.06608 430.34375 256.08203 C 430.34375 252.60939 430.21291 253.57881 430.01172 250.15625 L 168.20312 250.15625 C 168.8162 222.11613 173.70728 198.3816 180.94922 178.51953 C 198.96434 184.08828 218.65038 187.6235 239.35547 188.81055 L 239.35547 177.09375 C 220.18536 175.93177 201.98449 172.65753 185.36523 167.60742 C 191.86633 152.78509 199.63073 140.37938 207.69922 130.25781 C 218.04896 117.27445 228.87523 107.97739 237.94141 102.00781 C 242.51787 98.99449 246.82469 96.913709 250.15625 95.582031 L 250.15625 126.58008 C 253.80028 124.2004 258.10781 122.79127 262.69336 122.77734 L 262.69336 95.582031 C 266.02492 96.913711 270.33174 98.994477 274.9082 102.00781 C 282.10043 106.7435 290.39655 113.67045 298.6875 122.77344 L 314.12109 122.77344 C 305.39975 111.86918 296.35596 103.36251 287.97266 96.984375 C 310.20682 101.36033 330.752 110.33274 348.70703 122.77344 L 368.0332 122.77344 C 337.8171 97.441762 298.89671 82.162109 256.42383 82.162109 z M 224.875 96.984375 C 216.43774 103.40355 207.33183 111.96699 198.55859 122.97266 C 189.70839 134.07489 181.26531 147.68896 174.27344 163.89062 C 161.27057 159.12214 149.38904 153.27034 139.00586 146.51562 C 138.54319 146.21463 138.12072 145.89407 137.66406 145.58984 C 160.45378 121.11444 190.73011 103.70449 224.875 96.984375 z M 262.76172 136.44141 C 257.36649 136.44141 253.02344 140.78447 253.02344 146.17969 L 253.02344 226.59961 C 253.02344 231.99483 257.36649 236.33789 262.76172 236.33789 L 416.73047 236.33789 C 422.12569 236.33789 426.46875 231.99483 426.46875 226.59961 L 426.46875 146.17969 C 426.46875 140.78447 422.12569 136.44141 416.73047 136.44141 L 262.76172 136.44141 z M 377.31836 151.58203 C 383.16848 151.58203 387.93309 152.98067 391.61523 155.77734 C 395.33177 158.57403 398.04889 162.47394 399.76953 167.47852 C 401.52455 172.45365 402.4043 178.20874 402.4043 184.74414 C 402.4043 189.60152 401.90616 194.06246 400.9082 198.125 C 399.94465 202.18754 398.4483 205.70638 396.41797 208.67969 C 394.42202 211.653 391.82146 213.94924 388.62109 215.56836 C 385.45516 217.18749 381.68875 217.99609 377.31836 217.99609 C 372.87915 217.99609 369.05778 217.17005 365.85742 215.52148 C 362.65706 213.87291 360.04206 211.56315 358.01172 208.58984 C 355.98137 205.5871 354.48502 202.05668 353.52148 197.99414 C 352.55792 193.9316 352.07617 189.4842 352.07617 184.65625 C 352.07617 177.35545 353.02137 171.26379 354.91406 166.37695 C 356.80674 161.46069 359.62989 157.76387 363.38086 155.29102 C 367.13182 152.81816 371.77796 151.58203 377.31836 151.58203 z M 277.98438 152.55469 L 293.15234 152.55469 L 308.52344 201.48242 L 308.81836 201.48242 L 324.18945 152.55469 L 339.40625 152.55469 L 339.40625 217.11328 L 328.89844 217.11328 L 328.89844 179.18164 C 328.89844 178.12185 328.91417 176.94374 328.94727 175.64844 C 328.98017 174.32368 329.02953 172.8535 329.0957 171.23438 C 329.1948 169.61524 329.29342 167.83357 329.39258 165.89062 L 329.04688 165.89062 L 313.0332 217.11328 L 303.96094 217.11328 L 287.99805 165.8457 L 287.60156 165.8457 C 287.76681 167.81809 287.88311 169.6423 287.94922 171.32031 C 288.04832 172.96887 288.11343 174.4565 288.14648 175.78125 C 288.21248 177.07654 288.24609 178.19468 288.24609 179.13672 L 288.24609 217.11328 L 277.98438 217.11328 L 277.98438 152.55469 z M 129.95898 154.51367 C 130.84561 155.11653 131.72751 155.72356 132.63281 156.3125 C 143.73484 163.53487 156.28259 169.73102 169.91797 174.76367 C 162.2591 195.8583 157.13422 220.8919 156.51562 250.15625 L 94.339844 250.15625 C 95.638108 213.97828 108.76769 180.86362 129.95898 154.51367 z M 377.31836 160.14844 C 374.32448 160.14844 371.82991 161.077 369.83398 162.93164 C 367.83805 164.78627 366.3378 167.53709 365.33984 171.1875 C 364.34187 174.80846 363.8457 179.32741 363.8457 184.74414 C 363.8457 190.13141 364.34187 194.65037 365.33984 198.30078 C 366.37222 201.95118 367.88688 204.70395 369.88281 206.55859 C 371.87873 208.41322 374.34056 209.33984 377.26562 209.33984 C 380.2251 209.33984 382.68693 208.44224 384.64844 206.64648 C 386.60995 204.82128 388.08797 202.09752 389.08594 198.47656 C 390.0839 194.82616 390.58203 190.24917 390.58203 184.74414 C 390.58203 176.53074 389.46338 170.37909 387.22656 166.28711 C 385.02418 162.19512 381.72317 160.14844 377.31836 160.14844 z M 94.335938 261.84375 L 156.51367 261.84375 C 156.65686 268.81202 157.13792 275.45569 157.77539 281.9375 C 135.06642 283.24282 115.58609 296.54759 105.55859 315.61133 C 98.944455 298.87586 94.996971 280.79021 94.335938 261.84375 z M 168.19922 261.84375 L 250.15625 261.84375 L 250.15625 322.80664 C 240.33478 323.06484 230.75231 323.90919 221.41602 325.20117 C 213.93826 302.48802 193.9271 285.48344 169.56055 282.35742 C 168.87206 275.77034 168.35125 268.99696 168.19922 261.84375 z M 262.69336 261.84375 L 344.65039 261.84375 C 344.04714 290.22627 339.05168 314.18814 331.67969 334.20508 C 310.67002 327.46172 287.33992 323.45458 262.69336 322.80664 L 262.69336 261.84375 z M 356.33594 261.84375 L 418.51367 261.84375 C 417.23321 298.5442 403.76911 332.09178 382.07031 358.64062 C 380.64108 357.64117 379.20406 356.64996 377.72461 355.6875 C 367.2305 348.86061 355.44453 342.95194 342.67188 338.07227 C 350.48347 316.79575 355.72661 291.49669 356.33594 261.84375 z M 174.89258 295.27148 C 176.19514 295.29446 177.47914 295.61814 178.40625 296.13086 C 184.19686 299.73146 215.67469 313.20584 202.1875 321.9375 C 198.44788 324.15047 196.09713 326.79561 194.41992 330.03906 L 202.60742 334.71094 C 209.07776 337.84616 210.12025 347.30366 208.47656 353.39844 C 206.86942 359.16698 203.14513 365.14145 196.73047 368.80469 C 186.25544 374.17832 175.70966 379.56046 165.20703 384.92969 C 162.07457 386.9731 158.37308 386.57538 156.10156 385.2832 L 119.96484 364.6582 C 115.236 361.70061 115.08223 357.80115 117.20703 350.71289 C 120.07755 342.16667 126.45263 335.46904 132.75781 330.33008 C 139.48796 325.00949 148.75728 318.94378 156.47461 314.19922 C 158.87148 307.8382 163.19004 301.19349 171.26953 296.2168 C 172.26997 295.52526 173.59002 295.2485 174.89258 295.27148 z M 175.6875 302.01367 C 164.30492 309.02495 162.70717 318.08824 161.06836 327.14258 L 184.99023 341.0957 C 186.10595 330.58676 189.80562 321.5397 199.42773 315.8457 L 175.6875 302.01367 z M 155.53516 323.16602 L 137.54492 335.88477 C 132.21032 340.24351 126.91183 344.64473 124.64648 352.54492 C 123.85306 355.19011 123.08866 357.82639 124.09375 358.45312 C 134.43497 364.35377 144.95403 370.36716 153.73438 375.37891 C 158.03856 360.41351 167.58776 353.26351 179.33398 344.95898 L 157.95117 332.48633 C 155.70507 331.17554 154.51768 328.60012 154.98047 326.04102 C 155.16637 325.03442 155.36312 324.02051 155.53516 323.16602 z M 250.15625 334.49609 L 250.15625 416.58203 C 246.82469 415.25034 242.51787 413.16958 237.94141 410.15625 C 229.63207 404.68503 219.85298 396.26741 210.30859 384.92969 C 219.22749 374.04306 224.58373 360.12468 224.58398 344.95312 C 224.58403 342.15785 224.38339 339.41021 224.03125 336.71094 C 232.53025 335.5656 241.21789 334.74418 250.15625 334.49609 z M 262.69336 334.49609 C 285.81206 335.13773 307.66551 338.88757 327.25781 345.08008 C 320.80298 359.67189 313.12438 371.9032 305.15039 381.90625 C 294.80064 394.8896 283.97438 404.18669 274.9082 410.15625 C 270.33174 413.16958 266.02492 415.25034 262.69336 416.58203 L 262.69336 334.49609 z M 198.0957 340.5332 C 196.80708 340.6465 195.50798 341.27212 194.16992 342.13281 L 173.76562 356.55859 C 168.43104 360.91733 163.13058 365.31466 160.86523 373.21484 C 159.95384 376.92623 158.91825 380.57655 162.75586 378.66602 L 194.06641 362.66016 C 198.85789 358.9789 201.83139 355.00485 202.94336 349.78516 C 203.60019 346.18322 203.03218 342.93696 201.95898 342 C 200.66292 340.81759 199.38433 340.41991 198.0957 340.5332 z M 160.28125 344.38281 C 162.37501 344.40361 163.82992 345.59816 163.83008 347.29492 C 163.82982 349.36614 161.68502 351.47377 159.03906 352.00195 C 156.39538 352.5292 154.25307 351.28012 154.25195 349.21094 C 154.40885 346.08849 157.46875 344.3248 160.28125 344.38281 z M 338.28906 348.93164 C 350.42987 353.54708 361.55791 359.11312 371.35156 365.48438 C 372.35931 366.13995 373.32942 366.8154 374.30859 367.48633 C 351.61986 391.4777 321.6863 408.54439 287.9707 415.17969 C 296.40837 408.76039 305.51727 400.19773 314.29102 389.19141 C 323.02048 378.24066 331.35324 364.84151 338.28906 348.93164 z M 202.06055 393.27539 C 209.73679 402.28159 217.55279 409.60753 224.87695 415.17969 C 211.64163 412.57495 199.0811 408.20318 187.23242 402.57617 C 192.61656 400.16369 197.60225 397.02563 202.06055 393.27539 z "
       style="fill:#ffffff" />
  </g>
</svg>
